build/images/badges_privat3.svg

<?xml version="1.0" encoding="UTF-8"?>
<svg width="39px" height="32px" viewBox="0 0 39 32" version="1.1" xmlns="http://www.w3.org/2000/svg" xmlns:xlink="http://www.w3.org/1999/xlink">
    <!-- Generator: sketchtool 63.1 (101010) - https://sketch.com -->
    <title>86EFFD02-9098-41CB-A40E-0B81B2229C47</title>
    <desc>Created with sketchtool.</desc>
    <g id="Page-1" stroke="none" stroke-width="1" fill="none" fill-rule="evenodd">
        <g id="Kupa-shop---elements" transform="translate(-23.000000, -404.000000)" fill-rule="nonzero">
            <g id="badges/privat3" transform="translate(23.000000, 404.000000)">
                <g id="diagram" transform="translate(16.000000, 16.000000) scale(-1, 1) translate(-16.000000, -16.000000) ">
                    <path d="M16.9760957,17.4785015 C15.5876261,17.4764841 14.4620478,16.3525107 14.458013,14.9639989 L14.423087,3 C6.45048261,3.04160996 0,9.5168766 0,17.4995587 C0,25.5079633 6.49183913,32 14.5,32 C22.5081609,32 29,25.5079633 29,17.4995587 C29,17.4984239 29,17.497163 29,17.4960281 L16.9760957,17.4785015 Z" id="Path" fill="#F4D118"></path>
                    <path d="M31.99826,14.1020002 C31.5115778,6.51085976 25.4509921,0.44564865 17.8881363,0.00144563113 C17.8717959,0.000525684046 17.8554555,0 17.8392458,0 C17.6255135,0 17.4192324,0.0821381322 17.2630183,0.230643875 C17.0949083,0.390320404 16.9993497,0.612947598 17,0.845431368 L17.0410504,14.9793669 L31.1603248,15 C31.1607169,15 31.1611091,15 31.1615013,15 C31.3931427,15 31.6144569,14.9036684 31.7730241,14.733741 C31.9318527,14.5635508 32.0131625,14.3348783 31.99826,14.1020002 Z" id="Path" fill="#58AE00"></path>
                </g>
                <path d="M31.5746959,16.0896593 C31.4893707,15.5942385 31.5195988,15.1958363 31.7995534,14.9395534 C31.9200755,14.8190313 32.0969744,14.78 32.31,14.78 C32.5277711,14.78 32.7090311,14.8281379 32.8384466,14.9575534 C32.9660583,15.085165 33.016,15.2595152 33.016,15.468 C33.016,15.6548836 32.9391042,15.8095717 32.7931901,15.9355885 C32.5446486,16.1472906 32.1925848,16.1677472 31.5746959,16.0896593 Z M31.342,16.148 L31.342,19.4197129 L32.364,19.154 C32.7143379,19.154 32.9978524,19.2165056 33.1975593,19.3814809 C33.392893,19.546809 33.484,19.7764451 33.484,20.058 C33.484,20.3106235 33.409099,20.5297483 33.2527682,20.7128647 C33.0265041,20.9530665 32.7413036,21.07 32.4,21.07 C32.0372224,21.07 31.7449543,20.9812085 31.5295534,20.7484466 C31.2743688,20.4932621 31.1880424,20.1238678 31.1542803,19.396 L26.9762708,19.396 C27.005816,21.0676635 27.5724736,22.3983102 28.6599092,23.3963675 C29.6330894,24.3038135 30.8895814,24.77 32.436,24.77 C34.1300247,24.77 35.4354586,24.2816482 36.3715534,23.3455534 C37.1748029,22.5423038 37.58,21.5494634 37.58,20.364 C37.58,19.5692128 37.3786111,18.8886669 36.9889005,18.3180192 C36.7351205,17.9542417 36.4344267,17.6550283 36.0862662,17.4194135 C36.2465846,17.247663 36.3885191,17.0489548 36.5114267,16.8225459 C36.7885618,16.3237518 36.932,15.7514877 36.932,15.108 C36.932,14.071388 36.5602195,13.1791127 35.8135534,12.4324466 C35.0060953,11.6384214 33.8990976,11.224 32.472,11.224 C30.9408237,11.224 29.771165,11.679814 28.9421959,12.5488945 C28.1204976,13.370371 27.666845,14.4330915 27.5996176,16.148 L31.342,16.148 Z" id="3" stroke="#FFFFFF" fill="#333333"></path>
            </g>
        </g>
    </g>
</svg>

<svg width="39" height="32" xmlns="http://www.w3.org/2000/svg"><g id="Page-1" stroke="none" stroke-width="1" fill="none" fill-rule="evenodd"><g id="Kupa-shop---elements" transform="translate(-23 -404)" fill-rule="nonzero"><g id="badges/privat3" transform="translate(23 404)"><g id="diagram" transform="matrix(-1 0 0 1 32 0)"><path d="M16.976 17.479a2.522 2.522 0 01-2.518-2.515L14.423 3C6.45 3.042 0 9.517 0 17.5 0 25.508 6.492 32 14.5 32S29 25.508 29 17.5v-.004l-12.024-.017z" id="Path" fill="#F4D118"/><path d="M31.998 14.102C31.512 6.511 25.451.446 17.888.002a.836.836 0 00-.625.23.845.845 0 00-.263.613l.041 14.134 14.12.021a.836.836 0 00.612-.266.846.846 0 00.225-.632z" id="Path" fill="#58AE00"/></g><path d="M31.575 16.09c-.086-.496-.055-.894.225-1.15.12-.121.297-.16.51-.16.218 0 .399.048.528.178.128.127.178.302.178.51a.596.596 0 01-.223.468c-.248.211-.6.232-1.218.154zm-.233.058v3.272l1.022-.266c.35 0 .634.063.834.227.195.166.286.395.286.677a.974.974 0 01-.231.655 1.12 1.12 0 01-.853.357c-.363 0-.655-.089-.87-.322-.256-.255-.342-.624-.376-1.352h-4.178c.03 1.672.596 3.002 1.684 4 .973.908 2.23 1.374 3.776 1.374 1.694 0 3-.488 3.936-1.424.803-.804 1.208-1.797 1.208-2.982 0-.795-.201-1.475-.591-2.046a3.464 3.464 0 00-.903-.899c.16-.171.303-.37.425-.596.278-.5.421-1.072.421-1.715 0-1.037-.372-1.929-1.118-2.676-.808-.794-1.915-1.208-3.342-1.208-1.531 0-2.7.456-3.53 1.325-.822.821-1.275 1.884-1.342 3.599h3.742z" id="3" stroke="#FFF" fill="#333"/></g></g></g></svg>
